!! 00006] TT[TB
!! Eigene Aufnahme
!!!OTL: Liu liu ge
!!!ARE: Asia, China,ÿHunan, Xinning
!! Ethnic Group: Han
!! I, 562, 2)
!!!SCT: C0135
!!!YEM: Copyright 1995, estate of Helmut Schaffrath.
**kern
*ICvox
*Ivox
*M2/4
*k[]
*C:
{16a
16a
16cc
16a
4ee
=1
16ee
16a
16cc
16a
4g}
=2
{16a
16cc
16a
16cc
16ee
16a
16a
16cc
=3
16ee
16a
16cc
16a
4g}
=4
{16cc
16a
16g
16g
16gg
16ee
16ee
16ee
=5
16a
16ee
16cc
16a
16cc
8g
16a}
=6
{16a
16ee
16a
16cc
16ee
16a
16a
16cc
=7
16ee
16a
16cc
16a
4g}
==
!!!AGN: Shange. Datian laodong shi chang
!! sehr typisch. Voellig freier Rhythmus. Saengerin: Huang Bai
!!    Einige Akzente, Fermaten und Verzierungen.
!!    VARIANTE. Die Ecktoene stimmen mit der gesungenen Fassung ueberein.
!!    Der Text auf "liu liu" besteht aus Fuellwoertern.
!!!ONB: ESAC (Essen Associative Code) Database: CHINA
!!!AMT: simple duple
!!!AIN: vox
!!!EED: Helmut Schaffrath
!!!EEV: 1.0
*-
